X:1
T:Delvin House [1]
L:1/8
M:2/2
I:linebreak $
K:D
V:1 treble 
V:1
 dfef d2 AF | Eeed cABc | dfef d2 dB | A<AA>F Ad d2 :| afdf dfaf |$ bgeg egbg | afdf afdB | %7
 Agfe fddf | afdf dfaf | bgeg egbg |$ fgef dedB | A<AA>F Ad d2 || %12
